X: 29
T:Paddy in Flow
% Nottingham Music Database
S:Mick Peat
P:/f2AABA last time through/fP
M:6/8
K:D
A|:"D"DED FAB|=cBA -AdA|"D"DED FAB|"C"=cAG -G2A|"D"DED FAB|
=cBA Ade|fgf ed=c|1"A"Adc "D"dAF:|2"A"Adc "D"def|
K:A
|:"A"=gfe -efe|eag aec|Ace =gfe-|"E"eag bge|
"A"=gfe -efe|eag aec|Ace =gfe|[1"E"eag "A"aef:|[2"E"eag "A"a3|


